ix/gallery-favorite_twotone.svg

<svg viewBox="0 0 24 24" fill="none" xmlns="http://www.w3.org/2000/svg" height="1em" width="1em">
  <path opacity="0.4" d="M9 10C10.1046 10 11 9.10457 11 8C11 6.89543 10.1046 6 9 6C7.89543 6 7 6.89543 7 8C7 9.10457 7.89543 10 9 10Z" stroke="#292D32" stroke-width="1.5" stroke-linecap="round" stroke-linejoin="round"/>
  <path d="M12 2H9C4 2 2 4 2 9V15C2 20 4 22 9 22H15C20 22 22 20 22 15V11" stroke="#292D32" stroke-width="1.5" stroke-linecap="round" stroke-linejoin="round"/>
  <path opacity="0.4" d="M16.1197 5.1099C15.7897 4.0699 16.1797 2.7799 17.2597 2.4299C17.8297 2.2499 18.5397 2.3999 18.9397 2.9499C19.3197 2.3799 20.0497 2.2399 20.6197 2.4299C21.7097 2.7799 22.0997 4.0699 21.7697 5.1099C21.2497 6.7499 19.4497 7.6099 18.9497 7.6099C18.4397 7.6099 16.6497 6.7699 16.1197 5.1099Z" stroke="#292D32" stroke-width="1.5" stroke-linecap="round" stroke-linejoin="round"/>
  <path opacity="0.4" d="M2.66992 18.9501L7.59992 15.6401C8.38992 15.1101 9.52992 15.1701 10.2399 15.7801L10.5699 16.0701C11.3499 16.7401 12.6099 16.7401 13.3899 16.0701L17.5499 12.5001C18.3299 11.8301 19.5899 11.8301 20.3699 12.5001L21.9999 13.9001" stroke="#292D32" stroke-width="1.5" stroke-linecap="round" stroke-linejoin="round"/>
</svg>

<svg viewBox="0 0 24 24" fill="none" xmlns="http://www.w3.org/2000/svg" height="1em" width="1em">
  <path opacity=".4" d="M9 10a2 2 0 1 0 0-4 2 2 0 0 0 0 4Z" stroke="#292D32" stroke-width="1.5" stroke-linecap="round" stroke-linejoin="round"/>
  <path d="M12 2H9C4 2 2 4 2 9v6c0 5 2 7 7 7h6c5 0 7-2 7-7v-4" stroke="#292D32" stroke-width="1.5" stroke-linecap="round" stroke-linejoin="round"/>
  <path opacity=".4" d="M16.12 5.11c-.33-1.04.06-2.33 1.14-2.68.57-.18 1.28-.03 1.68.52.38-.57 1.11-.71 1.68-.52 1.09.35 1.48 1.64 1.15 2.68-.52 1.64-2.32 2.5-2.82 2.5-.51 0-2.3-.84-2.83-2.5ZM2.67 18.95l4.93-3.31c.79-.53 1.93-.47 2.64.14l.33.29c.78.67 2.04.67 2.82 0l4.16-3.57c.78-.67 2.04-.67 2.82 0L22 13.9" stroke="#292D32" stroke-width="1.5" stroke-linecap="round" stroke-linejoin="round"/>
</svg>
